outputs/icons/action/info_sharp.svg

<svg xmlns="http://www.w3.org/2000/svg" width="1200" height="1200" fill="none"><g clip-path="url(#a)"><path fill="#000" d="M600 100c-276 0-500 224-500 500s224 500 500 500 500-224 500-500-224-500-500-500m50 750H550V550h100zm0-400H550V350h100z"/></g><defs><clipPath id="a"><path fill="#fff" d="M0 0h1200v1200H0z"/></clipPath></defs></svg>

<svg width="1200" height="1200" viewBox="0 0 1200 1200" fill="none" xmlns="http://www.w3.org/2000/svg"><g clip-path="url(#clip0_117_756)"><path d="M600 100C324 100 100 324 100 600C100 876 324 1100 600 1100C876 1100 1100 876 1100 600C1100 324 876 100 600 100ZM650 850H550V550H650V850ZM650 450H550V350H650V450Z" fill="#1D1E23"/></g><defs><clipPath id="clip0_117_756"><path width="24" fill="white" d="M0 0H1200V1200H0V0z"/></clipPath></defs></svg>
